packages/foundations/assets/icons/functional/images/business & payment/shopping_basket_disabled_28.svg

<svg width="28" height="28" viewBox="0 0 28 28" fill="none" xmlns="http://www.w3.org/2000/svg">
<g clip-path="url(#clip0_184_124)">
<path fill-rule="evenodd" clip-rule="evenodd" d="M14.0136 2.18732C15.334 2.18712 16.6272 2.5623 17.7425 3.26911C18.8577 3.97591 19.7491 4.98521 20.3126 6.17932L23.6106 2.88132C23.691 2.79652 23.7876 2.72868 23.8946 2.68182C24.0017 2.63495 24.117 2.61001 24.2339 2.60846C24.3507 2.6069 24.4667 2.62877 24.575 2.67278C24.6833 2.71678 24.7816 2.78202 24.8642 2.86466C24.9469 2.94729 25.0121 3.04564 25.0561 3.15391C25.1001 3.26217 25.122 3.37815 25.1204 3.495C25.1189 3.61186 25.0939 3.72721 25.0471 3.83427C25.0002 3.94132 24.9324 4.03791 24.8476 4.11832C17.7036 11.2663 10.5576 18.4113 3.41058 25.5563C3.24641 25.7205 3.02375 25.8127 2.79158 25.8127C2.55941 25.8127 2.33675 25.7205 2.17258 25.5563C2.00841 25.3921 1.91618 25.1695 1.91618 24.9373C1.91618 24.7051 2.00841 24.4825 2.17258 24.3183C2.80258 23.6853 3.43358 23.0533 4.06658 22.4233L1.94458 11.2803C1.75758 10.2403 2.50658 9.22332 3.66858 9.22332C4.79058 9.22132 5.91258 9.22132 7.03358 9.22332C7.03358 5.35732 10.1486 2.18732 14.0136 2.18732ZM22.1946 9.22232H24.3306C25.3986 9.22232 26.1846 10.1453 26.0736 11.1543L26.0546 11.2803L23.8866 22.8223C23.6746 23.9663 22.7486 24.8813 21.6226 24.9583L21.4676 24.9633H6.72758C6.64058 24.9633 6.55358 24.9593 6.46758 24.9513L8.20758 23.2113H21.3276C21.5145 23.2092 21.6959 23.1482 21.8461 23.0368C21.9962 22.9255 22.1073 22.7696 22.1636 22.5913L22.1896 22.4883L24.3306 10.9483H20.4706L22.1946 9.22332V9.22232ZM15.5446 10.9463H3.66758L5.56658 20.9223L15.5426 10.9463H15.5446ZM14.0146 3.93932C11.1876 3.93932 8.89258 6.19632 8.78958 9.02432L8.78558 9.22332L17.2676 9.22232L18.9636 7.52732C18.2636 5.45232 16.3146 3.93932 14.0146 3.93932Z" fill="#1A1C1F"/>
</g>
<defs>
<clipPath id="clip0_184_124">
<rect width="28" height="28" fill="white"/>
</clipPath>
</defs>
</svg>

<svg xmlns="http://www.w3.org/2000/svg" width="28" height="28" fill="none"><g clip-path="url(#a)"><path fill="#1A1C1F" fill-rule="evenodd" d="M14.014 2.187a6.96 6.96 0 0 1 6.299 3.992l3.298-3.298a.875.875 0 1 1 1.237 1.237Q14.132 14.84 3.41 25.556a.875.875 0 1 1-1.238-1.238q.944-.95 1.894-1.895L1.945 11.28c-.187-1.04.562-2.057 1.724-2.057q1.683-.003 3.365 0c0-3.866 3.115-7.036 6.98-7.036m8.18 7.035h2.137c1.068 0 1.854.923 1.743 1.932l-.02.126-2.167 11.542c-.212 1.144-1.138 2.06-2.264 2.136l-.155.005H6.728q-.13 0-.26-.012l1.74-1.74h13.12a.89.89 0 0 0 .836-.62l.026-.103 2.14-11.54h-3.86l1.725-1.725m-6.65 1.724H3.669l1.899 9.976 9.976-9.976zm-1.53-7.007c-2.826 0-5.121 2.257-5.224 5.085l-.004.2 8.482-.002 1.696-1.695c-.7-2.075-2.65-3.588-4.95-3.588" clip-rule="evenodd"/></g><defs><clipPath id="a"><path fill="#fff" d="M0 0h28v28H0z"/></clipPath></defs></svg>
